src/icons/flags/tz.svg

<svg viewBox="0 0 640 480" xmlns="http://www.w3.org/2000/svg" xmlns:xlink="http://www.w3.org/1999/xlink"><clipPath id="a"><path d="m10 0h160v120h-160z"/></clipPath><g clip-path="url(#a)" fill-rule="evenodd" stroke-width="1pt" transform="matrix(4 0 0 4 -40 0)"><path d="m0 0h180v120h-180z" fill="#09f"/><path d="m0 0h180l-180 120z" fill="#090"/><path d="m0 120h40l140-95v-25h-40l-140 95z"/><path d="m0 91.5 137.2-91.5h13.5l-150.7 100.5zm29.3 28.5 150.7-100.5v9l-137.2 91.5z" fill="#ff0"/></g></svg>

<svg xmlns="http://www.w3.org/2000/svg" id="flag-icons-tz" viewBox="0 0 640 480">
  <defs>
    <clipPath id="tz-a">
      <path fill-opacity=".7" d="M10 0h160v120H10z"/>
    </clipPath>
  </defs>
  <g fill-rule="evenodd" stroke-width="1pt" clip-path="url(#tz-a)" transform="matrix(4 0 0 4 -40 0)">
    <path fill="#09f" d="M0 0h180v120H0z"/>
    <path fill="#090" d="M0 0h180L0 120V0z"/>
    <path d="M0 120h40l140-95V0h-40L0 95v25z"/>
    <path fill="#ff0" d="M0 91.5 137.2 0h13.5L0 100.5v-9zM29.3 120 180 19.5v9L42.8 120H29.3z"/>
  </g>
</svg>
